X:1
T: Betty Pringle's Pig
C:
R:Reel
Q:232
K:F
M:4/4
L:1/8
fd|:cF dF cF Ad|cF dA GA Bd|cF dF cF Ac|de fg ag fd|
cF dF cF Ad|cF dA GA Bd|cF dF cF Ac|de fg aff2:|
|:ag fe fc Ac|df cA AGG2|ag fe fc Ac|dfeg f2fa|
ag fe fc Ac|df cA AG GB|AF cF dF cF|1df eg f2f2:|2df eg f2||
